packages/core/src/svgs/dbi.svg

<svg width="24" height="24" viewBox="0 0 24 24" fill="none" xmlns="http://www.w3.org/2000/svg">
<g clip-path="url(#clip0_31_9019)">
<path d="M0 0H24V24H0V0Z" fill="#FCF7D4"/>
<path d="M13.1529 16.1444C12.21 14.8158 11.8929 14.5672 10.7143 16.1058C10.6822 16.1388 10.6417 16.1626 10.5973 16.1747C10.5528 16.1868 10.5059 16.1866 10.4614 16.1744C8.53716 15.7372 7.18288 14.1558 7.91573 11.9615C7.95002 11.8629 8.0143 11.7001 8.11288 11.4772C8.19002 11.2972 8.18145 11.0915 8.15573 10.8644C8.08716 10.3244 7.96288 7.87722 8.92716 7.98008C9.01288 7.98865 9.10716 8.01437 9.21002 8.05294C9.59573 8.20294 9.96859 8.4258 10.3243 8.72151C10.5172 8.8758 10.7443 8.7858 10.95 8.74294C11.6137 8.60178 12.3017 8.62236 12.9557 8.80294C13.1014 8.8458 13.2129 8.78151 13.3457 8.67437C13.8201 8.27927 14.3635 7.97557 14.9486 7.77865C15.12 7.72294 15.2486 7.70151 15.3472 7.71865C16.0757 7.84722 16.1314 9.48437 16.0972 10.0372C16.0714 10.4358 16.0286 10.8301 15.9729 11.2244C15.9 11.7301 16.14 12.0258 16.23 12.4972C16.3368 13.0114 16.2983 13.5451 16.1189 14.0386C15.9395 14.5321 15.6263 14.9659 15.2143 15.2915C14.6829 15.6987 13.9543 16.1015 13.2943 16.1701C13.2457 16.174 13.197 16.1652 13.1529 16.1444Z" fill="#070404"/>
<path d="M14.173 8.89263C14.0787 8.88834 13.9887 8.89692 13.8944 8.9312C13.8344 8.94834 13.753 8.99977 13.6587 9.07692C13.4615 9.23549 13.2601 9.34263 13.0158 9.30406C12.8572 9.27834 12.703 9.27406 12.5444 9.24406C12.2144 9.17549 11.833 9.22692 11.4772 9.25263C11.263 9.26549 11.0787 9.29549 10.9201 9.34263C10.2344 9.55692 9.71153 10.0283 9.20153 10.5426C8.97867 10.7569 8.85868 11.0398 8.69582 11.2969C8.53345 11.5569 8.38607 11.8259 8.25439 12.1026C8.21582 12.1326 8.1901 12.1326 8.17725 12.1026C8.47725 11.1941 8.99153 10.3069 9.70296 9.69834C10.513 9.00406 11.5458 8.84977 12.5487 9.04263L13.0801 9.14977C13.2387 9.18406 13.4915 8.93549 13.6158 8.8412C14.0475 8.50987 14.5293 8.24946 15.043 8.06977C15.193 8.02263 15.3087 8.02263 15.4415 8.09549C15.4715 8.11692 15.4715 8.16834 15.433 8.1812C14.9872 8.36549 14.5672 8.6012 14.173 8.89263Z" fill="#FECBD4"/>
<path d="M14.1728 8.89262L13.7013 9.29976C13.4013 9.56976 13.7356 9.69833 13.9156 9.81405C13.9199 9.88691 13.9542 9.95548 14.0142 10.024C14.807 10.8812 15.4499 11.9955 15.3428 13.2512L15.3385 13.2469C14.8795 13.1918 14.4151 13.2005 13.9585 13.2726C13.6113 13.3283 13.187 13.4355 12.8699 13.4012C12.6135 13.3709 12.3688 13.2766 12.1585 13.1269C11.687 12.7969 11.0442 12.2355 10.427 12.484C10.0285 12.6512 9.74133 13.0755 9.30419 13.144C9.02133 13.1912 8.74276 13.1012 8.44704 13.0155C8.30199 12.9843 8.15265 12.9785 8.00562 12.9983C8.03133 12.6983 8.08704 12.3983 8.17704 12.1026C8.1899 12.1326 8.2199 12.1326 8.25419 12.1026C8.38587 11.8259 8.53325 11.5569 8.69562 11.2969C8.85847 11.0398 8.97847 10.7612 9.20133 10.5383C9.4499 10.2898 9.7199 9.99405 10.0928 9.74548C10.1999 9.67262 10.3028 9.58262 10.4185 9.53119C10.5813 9.45833 10.7485 9.39405 10.9199 9.34262C11.0785 9.29548 11.2628 9.26548 11.477 9.25262C11.8328 9.22691 12.2142 9.17548 12.5485 9.24405C12.6342 9.26119 12.7113 9.27405 12.7799 9.27833C12.8485 9.27833 12.9256 9.29119 13.0113 9.30405C13.2599 9.34691 13.4613 9.23548 13.6542 9.07691C13.7528 8.99976 13.8342 8.94833 13.8942 8.93119C13.9885 8.89691 14.0785 8.88833 14.1728 8.89262Z" fill="#FFB8C2"/>
<path d="M13.9158 9.81445C15.0986 10.543 16.1015 11.803 15.9601 13.3545C15.9643 13.3116 15.9301 13.303 15.8572 13.3202C15.8241 13.331 15.7888 13.334 15.7543 13.3287C15.6172 13.2987 15.4758 13.2773 15.3386 13.2516C15.4501 11.9959 14.8072 10.8816 14.0143 10.0245C13.9578 9.96824 13.9229 9.89388 13.9158 9.81445Z" fill="#CC949C"/>
<path d="M15.3386 13.2469C15.189 14.0722 14.7347 14.811 14.0657 15.3169C13.8557 15.4883 13.7014 15.6341 13.5943 15.7455L13.2814 15.8483C13.1443 15.8912 13.0457 15.9898 13.1529 16.1441C12.99 16.1655 12.8314 16.1912 12.6729 16.2212C12.02 16.3365 11.3491 16.2969 10.7143 16.1055C10.7314 16.0669 10.7357 16.0241 10.7186 15.9769C10.7153 15.9635 10.7078 15.9515 10.6972 15.9426C10.6515 15.9067 10.599 15.8805 10.5429 15.8655C9.17144 15.5826 7.95429 14.6141 8.00572 12.9941C8.153 12.9757 8.30235 12.9829 8.44715 13.0155C8.74287 13.1012 9.02144 13.1869 9.30429 13.1441C9.74572 13.0755 10.0329 12.6469 10.4272 12.4883C11.04 12.2355 11.6872 12.7969 12.1586 13.1269C12.3814 13.2812 12.6172 13.3712 12.87 13.4012C13.1829 13.4355 13.6114 13.3283 13.9586 13.2726C14.4152 13.2005 14.8796 13.1918 15.3386 13.2469Z" fill="white"/>
<path d="M15.3385 13.2471V13.2514C15.4757 13.2771 15.6171 13.2985 15.7542 13.3285C15.7842 13.3285 15.8185 13.3285 15.8571 13.3199C15.93 13.3028 15.9642 13.3114 15.96 13.3542C15.9385 13.5256 15.9257 13.7056 15.8614 13.8685C15.5185 14.7685 14.6828 15.4028 13.8214 15.6942C13.7228 15.7285 13.65 15.7456 13.5942 15.7456C13.7014 15.6342 13.8557 15.4885 14.0657 15.3171C14.7346 14.8112 15.1889 14.0723 15.3385 13.2471Z" fill="#C8C9C9"/>
<path d="M8.90152 8.2927C9.36423 8.42356 9.79376 8.65147 10.1615 8.96128C10.1744 8.96985 10.1701 8.99556 10.1572 9.00413L9.77152 9.21842C9.76343 9.22368 9.75366 9.22573 9.74414 9.22414C9.73462 9.22255 9.72604 9.21745 9.72009 9.20985C9.55336 8.97991 9.36383 8.7674 9.15438 8.57556C9.06866 8.49413 8.94866 8.43413 8.86723 8.36556C8.77723 8.28413 8.78581 8.2627 8.90152 8.2927Z" fill="#FFB8C2"/>
<path d="M15.3001 10.5855C15.3472 10.5469 15.373 10.5041 15.373 10.4569C15.3515 9.8998 15.313 9.28694 15.2444 8.62266L15.6044 8.49837C15.6301 8.49409 15.6558 8.50694 15.6601 8.53266C15.8304 9.37622 15.8391 10.2444 15.6858 11.0912H15.6772L15.6687 11.0827L15.2958 10.5855H15.3001Z" fill="#F48E96"/>
<path d="M8.43011 10.6756C8.3616 9.99127 8.40795 9.30032 8.56726 8.63129C8.57225 8.62717 8.57811 8.62424 8.5844 8.62272C8.58981 8.62036 8.59564 8.61914 8.60154 8.61914C8.60744 8.61914 8.61328 8.62036 8.61868 8.62272C8.95297 8.76415 9.24868 9.137 9.46726 9.43272C9.47583 9.44558 9.47583 9.45843 9.46297 9.467C9.07726 9.81843 8.74297 10.2256 8.46868 10.6841C8.44726 10.727 8.4344 10.727 8.42583 10.6756H8.43011ZM15.2487 8.62272C15.313 9.287 15.3515 9.89986 15.373 10.457C15.373 10.5041 15.3473 10.547 15.2958 10.5856C14.9232 10.1676 14.4999 9.79757 14.0358 9.48415C14.0332 9.48215 14.031 9.47956 14.0295 9.47659C14.028 9.47361 14.0273 9.47033 14.0273 9.467C14.0273 9.46368 14.028 9.4604 14.0295 9.45742C14.031 9.45444 14.0332 9.45186 14.0358 9.44986C14.413 9.13272 14.8073 8.84129 15.2487 8.62272Z" fill="#ED6C74"/>
<path d="M12.4158 11.1428C12.4721 11.1445 12.5281 11.1351 12.5808 11.1151C12.6335 11.0952 12.6817 11.065 12.7227 11.0264C12.7636 10.9878 12.7966 10.9415 12.8197 10.8901C12.8428 10.8388 12.8555 10.7834 12.8572 10.7271C12.8589 10.6708 12.8495 10.6147 12.8296 10.5621C12.8096 10.5094 12.7794 10.4612 12.7408 10.4202C12.7022 10.3792 12.6559 10.3462 12.6046 10.3231C12.5532 10.3 12.4978 10.2873 12.4415 10.2856C12.3852 10.2839 12.3291 10.2933 12.2765 10.3133C12.2238 10.3333 12.1756 10.3634 12.1346 10.402C12.0936 10.4406 12.0607 10.4869 12.0376 10.5383C12.0145 10.5897 12.0017 10.6451 12.0001 10.7014C11.9984 10.7576 12.0078 10.8137 12.0277 10.8664C12.0477 10.919 12.0778 10.9672 12.1164 11.0082C12.1551 11.0492 12.2014 11.0822 12.2527 11.1053C12.3041 11.1284 12.3595 11.1411 12.4158 11.1428ZM9.88721 11.1428C10.1229 11.1214 10.2986 10.9156 10.2858 10.6799C10.282 10.6238 10.2671 10.5689 10.2419 10.5186C10.2167 10.4683 10.1818 10.4234 10.1391 10.3867C10.0964 10.3501 10.0468 10.3222 9.9933 10.3049C9.93976 10.2875 9.8833 10.281 9.82721 10.2856C9.5915 10.3071 9.41578 10.5128 9.42864 10.7485C9.44578 10.9842 9.6515 11.1599 9.88721 11.1428Z" fill="white"/>
<path d="M9.56131 12.4288C9.17988 12.3859 8.97845 12.0259 9.02131 11.7216C9.06417 11.4131 9.35559 11.1088 9.73702 11.1474C9.82039 11.1546 9.90137 11.1789 9.97492 11.2188C10.0485 11.2586 10.113 11.3133 10.1645 11.3792C10.216 11.4452 10.2533 11.5211 10.2741 11.6021C10.295 11.6831 10.2989 11.7676 10.2856 11.8502C10.2513 12.0902 10.0799 12.3216 9.81417 12.4031C9.73274 12.4245 9.65131 12.4331 9.56559 12.4245L9.56131 12.4288Z" fill="#070404"/>
<path d="M9.66012 11.6231C9.65775 11.6456 9.65987 11.6684 9.66636 11.6901C9.67285 11.7118 9.68358 11.732 9.69793 11.7495C9.71228 11.7671 9.72996 11.7816 9.74995 11.7922C9.76994 11.8029 9.79185 11.8095 9.8144 11.8116C9.90869 11.8159 9.99012 11.7431 10.003 11.6488C10.0053 11.6262 10.0032 11.6035 9.99673 11.5818C9.99024 11.5601 9.97951 11.5398 9.96516 11.5223C9.95082 11.5048 9.93313 11.4903 9.91314 11.4796C9.89315 11.4689 9.87124 11.4623 9.84869 11.4602C9.80232 11.4578 9.75681 11.4734 9.72167 11.5037C9.68653 11.5341 9.66448 11.5768 9.66012 11.6231Z" fill="white"/>
<path d="M13.2857 11.7859C13.2846 11.9561 13.2165 12.1189 13.0962 12.2393C12.9759 12.3596 12.813 12.4277 12.6429 12.4288C12.5157 12.4288 12.3914 12.3911 12.2857 12.3204C12.18 12.2498 12.0976 12.1494 12.0489 12.0319C12.0003 11.9145 11.9875 11.7852 12.0124 11.6605C12.0372 11.5358 12.0984 11.4213 12.1883 11.3314C12.2782 11.2415 12.3927 11.1802 12.5174 11.1554C12.6421 11.1306 12.7714 11.1433 12.8889 11.192C13.0063 11.2407 13.1067 11.3231 13.1774 11.4288C13.248 11.5345 13.2857 11.6588 13.2857 11.7859Z" fill="#070404"/>
<path d="M12.463 11.7858C12.4869 11.7896 12.5113 11.7882 12.5346 11.7817C12.5579 11.7752 12.5796 11.7637 12.598 11.748C12.6164 11.7323 12.6312 11.7128 12.6414 11.6909C12.6515 11.6689 12.6568 11.645 12.6568 11.6208C12.6568 11.5966 12.6515 11.5726 12.6414 11.5507C12.6312 11.5287 12.6164 11.5092 12.598 11.4935C12.5796 11.4778 12.5579 11.4663 12.5346 11.4598C12.5113 11.4533 12.4869 11.4519 12.463 11.4558C12.4238 11.4621 12.3881 11.4822 12.3624 11.5124C12.3366 11.5426 12.3225 11.5811 12.3225 11.6208C12.3225 11.6605 12.3366 11.6989 12.3624 11.7291C12.3881 11.7593 12.4238 11.7794 12.463 11.7858Z" fill="white"/>
<path d="M9.98993 14.1645L10.2942 13.9159C10.3052 13.9083 10.3141 13.898 10.3199 13.8859C10.3244 13.873 10.3256 13.8592 10.3234 13.8457C10.3211 13.8322 10.3155 13.8195 10.3071 13.8088C10.3003 13.7997 10.2915 13.7924 10.2814 13.7873C10.0799 13.7016 9.93422 13.5645 9.89993 13.3245C9.87422 13.1445 9.91708 13.0245 10.0285 12.9516C10.2556 12.8145 10.8942 12.8059 11.0528 13.0631C11.1514 13.2216 11.0785 13.4702 10.9756 13.5988C10.9028 13.6845 10.7828 13.7445 10.6842 13.8002C10.6755 13.8055 10.6681 13.8129 10.6628 13.8216C10.6562 13.8308 10.6519 13.8415 10.6504 13.8527C10.6489 13.8639 10.6502 13.8753 10.6542 13.8859L10.6714 13.9116C10.8214 14.0488 11.0614 14.2116 11.2285 14.2502C11.4556 14.2973 11.6528 14.0359 11.8199 13.8988C11.8259 13.894 11.8328 13.8907 11.8403 13.8892C11.8478 13.8877 11.8555 13.8881 11.8628 13.8902C11.9356 13.9116 11.9828 13.9631 11.9999 14.0445C12.0035 14.0621 12.0005 14.0804 11.9914 14.0959C11.7985 14.3959 11.4256 14.6959 11.0699 14.5159C10.8814 14.4173 10.6971 14.3102 10.5256 14.1945C10.5127 14.186 10.4975 14.1819 10.4821 14.1827C10.4667 14.1834 10.4519 14.1891 10.4399 14.1988C10.2042 14.3831 9.92565 14.6702 9.64708 14.3273C9.57854 14.2464 9.51418 14.162 9.45422 14.0745C9.41136 14.0016 9.41993 13.9373 9.48422 13.8816L9.50993 13.8516C9.52152 13.8414 9.53518 13.8338 9.54998 13.8294C9.56477 13.825 9.58035 13.8238 9.59565 13.8259C9.61013 13.8275 9.62412 13.8321 9.63668 13.8395C9.64924 13.8469 9.66009 13.8569 9.6685 13.8688L9.87422 14.1516C9.9085 14.1945 9.94708 14.1988 9.98993 14.1645Z" fill="#070404"/>
<path fill-rule="evenodd" clip-rule="evenodd" d="M18.8571 5.14307H5.14282V18.8574H18.8571V5.14307ZM16.7143 7.28592H7.28568V16.7145H16.7143V7.28592Z" fill="#FFC0C9"/>
</g>
<defs>
<clipPath id="clip0_31_9019">
<rect width="24" height="24" fill="white"/>
</clipPath>
</defs>
</svg>

<svg xmlns="http://www.w3.org/2000/svg" width="24" height="24" fill="none" viewBox="0 0 24 24"><g clip-path="url(#a)"><path fill="#FCF7D4" d="M0 0h24v24H0z"/><path fill="#070404" d="M13.153 16.144c-.943-1.328-1.26-1.577-2.439-.038a.26.26 0 0 1-.253.068c-1.924-.437-3.278-2.018-2.545-4.212q.05-.15.197-.485c.077-.18.068-.386.043-.613-.069-.54-.193-2.987.771-2.884q.129.014.283.073.58.225 1.114.669c.193.154.42.064.626.02a4.2 4.2 0 0 1 2.006.06c.145.044.257-.02.39-.128a5 5 0 0 1 1.603-.895c.171-.056.3-.077.398-.06.729.128.784 1.765.75 2.318a16 16 0 0 1-.124 1.187c-.073.506.167.802.257 1.273a2.83 2.83 0 0 1-1.016 2.794c-.531.408-1.26.81-1.92.88a.3.3 0 0 1-.141-.027"/><path fill="#FECBD4" d="M14.173 8.893a.7.7 0 0 0-.279.038.8.8 0 0 0-.235.146c-.198.158-.399.266-.643.227-.159-.026-.313-.03-.472-.06-.33-.069-.711-.017-1.067.009a2.5 2.5 0 0 0-.557.09c-.686.214-1.208.685-1.718 1.2-.223.214-.343.497-.506.754q-.244.39-.442.806-.057.045-.077 0c.3-.909.815-1.796 1.526-2.405.81-.694 1.843-.848 2.846-.655l.531.107c.159.034.412-.215.536-.309a5.1 5.1 0 0 1 1.427-.771c.15-.047.266-.047.399.025.03.022.03.073-.009.086q-.669.275-1.26.712"/><path fill="#FFB8C2" d="M14.173 8.893 13.7 9.3c-.3.27.035.398.215.514a.35.35 0 0 0 .098.21c.793.857 1.436 1.972 1.329 3.227l-.005-.004a5 5 0 0 0-1.38.026c-.347.055-.771.162-1.088.128a1.54 1.54 0 0 1-.711-.274c-.472-.33-1.115-.892-1.732-.643-.399.167-.686.591-1.123.66-.283.047-.561-.043-.857-.129a1.3 1.3 0 0 0-.441-.017q.037-.451.171-.895c.013.03.043.03.077 0q.198-.416.442-.806c.162-.257.282-.536.505-.759.249-.248.519-.544.892-.793.107-.072.21-.162.325-.214q.244-.11.502-.188.237-.072.557-.09c.356-.026.737-.078 1.072-.009q.128.027.23.034c.07 0 .147.013.232.026.249.043.45-.069.643-.227a.8.8 0 0 1 .24-.146.7.7 0 0 1 .279-.038"/><path fill="#CC949C" d="M13.916 9.814c1.183.729 2.186 1.989 2.044 3.54q.006-.061-.103-.034a.2.2 0 0 1-.103.009c-.137-.03-.278-.052-.415-.077.111-1.256-.532-2.37-1.325-3.228a.34.34 0 0 1-.098-.21"/><path fill="#fff" d="M15.339 13.247a3.34 3.34 0 0 1-1.273 2.07c-.21.171-.365.317-.472.428l-.313.103c-.137.043-.235.142-.128.296a9 9 0 0 0-.48.077 4.2 4.2 0 0 1-1.959-.116.17.17 0 0 0 .005-.128.07.07 0 0 0-.022-.034.4.4 0 0 0-.154-.077c-1.372-.283-2.589-1.252-2.537-2.872q.222-.027.441.021c.296.086.574.172.857.13.442-.07.729-.498 1.123-.657.613-.252 1.26.309 1.732.639q.332.23.711.274c.313.034.741-.073 1.089-.128.456-.072.92-.081 1.38-.026"/><path fill="#C8C9C9" d="M15.339 13.247v.004c.137.026.278.048.415.078.03 0 .065 0 .103-.01.073-.016.107-.008.103.035-.022.172-.034.352-.099.515-.343.9-1.178 1.534-2.04 1.825a.7.7 0 0 1-.227.052c.107-.112.262-.258.472-.429a3.34 3.34 0 0 0 1.272-2.07"/><path fill="#FFB8C2" d="M8.902 8.293c.462.13.892.358 1.26.668.012.009.008.035-.005.043l-.385.214a.04.04 0 0 1-.052-.008 4.2 4.2 0 0 0-.566-.634c-.085-.082-.205-.142-.287-.21-.09-.082-.081-.103.035-.073"/><path fill="#F48E96" d="M15.3 10.586q.072-.059.073-.13a29 29 0 0 0-.129-1.833l.36-.125c.026-.004.052.009.056.035.17.843.18 1.711.026 2.558h-.009l-.008-.008-.373-.498z"/><path fill="#ED6C74" d="M8.43 10.676a6.2 6.2 0 0 1 .137-2.045.04.04 0 0 1 .017-.008.04.04 0 0 1 .035 0c.334.141.63.514.848.81q.014.02-.004.034c-.386.351-.72.759-.994 1.217q-.032.066-.043-.008zm6.819-2.053c.064.664.102 1.277.124 1.834q0 .07-.077.129a6.8 6.8 0 0 0-1.26-1.102l-.006-.007-.003-.01a.02.02 0 0 1 .009-.017c.377-.317.771-.609 1.213-.827"/><path fill="#fff" d="M12.416 11.143a.428.428 0 1 0 .026-.856.428.428 0 0 0-.026.856m-2.529 0a.44.44 0 0 0 .399-.463.424.424 0 0 0-.459-.394.44.44 0 0 0-.398.463.427.427 0 0 0 .458.394"/><path fill="#070404" d="M9.561 12.429c-.381-.043-.583-.403-.54-.707.043-.309.335-.613.716-.575a.61.61 0 0 1 .549.703.68.68 0 0 1-.472.553.7.7 0 0 1-.248.021z"/><path fill="#fff" d="M9.66 11.623a.17.17 0 0 0 .154.189.186.186 0 0 0 .189-.163.17.17 0 0 0-.09-.17.2.2 0 0 0-.064-.019.18.18 0 0 0-.189.163"/><path fill="#070404" d="M13.286 11.786a.647.647 0 0 1-.643.643.642.642 0 1 1 .643-.643"/><path fill="#fff" d="M12.463 11.786a.168.168 0 0 0 .194-.165.168.168 0 0 0-.194-.165.167.167 0 0 0 0 .33"/><path fill="#070404" d="m9.99 14.165.304-.25a.1.1 0 0 0 .026-.03.08.08 0 0 0-.013-.076.1.1 0 0 0-.026-.022c-.201-.085-.347-.223-.381-.463-.026-.18.017-.3.128-.372.228-.137.866-.146 1.025.111.098.159.025.407-.077.536-.073.085-.193.146-.292.201a.1.1 0 0 0-.021.022.07.07 0 0 0-.009.064l.017.026c.15.137.39.3.558.338.227.047.424-.214.59-.351a.05.05 0 0 1 .044-.009.19.19 0 0 1 .137.154.07.07 0 0 1-.009.052c-.192.3-.565.6-.921.42a6 6 0 0 1-.544-.322.07.07 0 0 0-.086.005c-.236.184-.514.471-.793.128a3 3 0 0 1-.193-.252q-.065-.11.03-.193l.026-.03a.1.1 0 0 1 .086-.026.1.1 0 0 1 .072.043l.206.283q.051.064.116.013"/><path fill="#FFC0C9" fill-rule="evenodd" d="M18.857 5.143H5.143v13.714h13.714zm-2.143 2.143H7.286v9.429h9.428z" clip-rule="evenodd"/></g><defs><clipPath id="a"><path fill="#fff" d="M0 0h24v24H0z"/></clipPath></defs></svg>
